X:76
M:6/8
L:1/8
K:Gmin
|: B/c/ | ddd gdd | Acc fcc | dBB cAA | BGG A^FD | ddd gdd | Acc fcc | BGG A^FF | (G3 G2) :|

